modules/hawcons-stroke/icons/icon-38-sunglasses.svg

<?xml version="1.0" encoding="UTF-8" standalone="no"?>
<svg width="32px" height="32px" viewBox="0 0 32 32" version="1.1" xmlns="http://www.w3.org/2000/svg" xmlns:xlink="http://www.w3.org/1999/xlink" xmlns:sketch="http://www.bohemiancoding.com/sketch/ns">
    <!-- Generator: Sketch 3.0.3 (7891) - http://www.bohemiancoding.com/sketch -->
    <title>icon 38 sunglasses</title>
    <desc>Created with Sketch.</desc>
    <defs></defs>
    <g id="Page-1" stroke="none" stroke-width="1" fill="none" fill-rule="evenodd" sketch:type="MSPage">
        <g id="icon-38-sunglasses" sketch:type="MSArtboardGroup" fill="#929292">
            <path d="M18.0099848,14.967436 C17.9752536,15.3023242 18.035602,15.6543539 18.1219075,15.967436 L18.1219075,15.967436 L28.9628413,15.967436 C28.993855,15.6765894 29.0156063,15.3228719 28.9858432,14.967436 L18.0099848,14.967436 L18.0099848,14.967436 Z M18.6089745,13.967436 C18.7271577,13.8911843 18.86595,13.8245624 19.0281605,13.7698498 C20.8179697,13.1661582 22.6607773,13.0025014 23.6667339,12.9752415 C24.6726905,12.9479816 27.5314083,12.9627088 28.3083558,13.5223896 C28.4768121,13.6437385 28.6066275,13.7959311 28.7057694,13.967436 L18.6089745,13.967436 L18.6089745,13.967436 Z M13.4894744,16.967436 C13.3867508,17.2529605 13.2123097,17.6147245 12.9955896,17.967436 L12.9955896,17.967436 L3.46770338,17.967436 C3.35946426,17.667247 3.26474935,17.3074332 3.19523516,16.967436 L13.4894744,16.967436 L13.4894744,16.967436 L13.4894744,16.967436 Z M13.8418742,15.967436 C13.9285967,15.6540368 13.9884123,15.301542 13.9498589,14.967436 L13.9498589,14.967436 L3.02349327,14.967436 C2.99172726,15.3222384 3.01314219,15.6763698 3.0442512,15.967436 L13.8418742,15.967436 L13.8418742,15.967436 L13.8418742,15.967436 Z M12.1868413,18.967436 C12.1366152,19.0105268 12.0860305,19.0502231 12.0352695,19.0859973 C11.3756887,19.550841 9.92660725,19.921486 8.10534137,19.921486 C7.04771593,19.921486 6.18918422,19.8717329 5.34402834,19.6815783 C4.73981597,19.5456345 4.35253788,19.420492 3.99926907,18.967436 L12.1868413,18.967436 L12.1868413,18.967436 L12.1868413,18.967436 Z M13.3048935,13.967436 C13.1986526,13.9049867 13.076928,13.8498082 12.9379376,13.803334 C11.1556166,13.2073799 9.3205189,13.0458207 8.31877099,13.0189102 C7.31702309,12.9919997 4.47026556,13.0065381 3.69656859,13.5590455 C3.53911161,13.6714877 3.41555597,13.8107557 3.31934055,13.967436 L13.3048935,13.967436 L13.3048935,13.967436 L13.3048935,13.967436 Z M28.5454857,17.967436 C28.6519311,17.6653105 28.7449472,17.3063501 28.8133318,16.967436 L28.8133318,16.967436 L18.4716074,16.967436 C18.5724352,17.2523071 18.7440432,17.6135497 18.9577837,17.967436 L28.5454857,17.967436 L28.5454857,17.967436 L28.5454857,17.967436 Z M28.0298254,18.967436 C27.6681408,19.4538694 27.2752623,19.5834053 26.6539745,19.7244135 C25.8052678,19.917037 24.9431291,19.967436 23.8810602,19.967436 C22.0521425,19.967436 20.596973,19.5919788 19.9346211,19.1210998 C19.8708322,19.0757511 19.8073209,19.0241807 19.7444453,18.967436 L28.0298254,18.967436 L28.0298254,18.967436 L28.0298254,18.967436 Z M15.0589913,12.9754384 C10.6916314,11.7719065 4.53387131,11.8281403 1.3661467,12.361913 C0.983629127,12.4263686 0.923582061,14.1847483 1.26377409,14.2462718 C1.88986675,14.4994727 2.15698306,15.1313222 2.15698306,15.1313222 C2.15698306,15.1313222 2.34392988,15.6919912 2.88684402,17.9721018 C3.42975813,20.2522125 4.72405771,20.5256229 4.72405771,20.5256229 C4.72405771,20.5256229 6.30822732,20.9176315 8.13565831,20.9176314 C9.96308931,20.9176314 11.0562546,20.8345422 12.226593,20.2491472 C13.3969315,19.6637523 13.9084488,18.0334083 13.9084488,18.0334083 C13.9084488,18.0334083 14.4981124,16.6285553 14.9040687,15.3029802 C15.0313718,14.8872958 16.968628,14.8872958 17.095931,15.3029802 C17.5018874,16.6285553 18.091551,18.0334083 18.091551,18.0334083 C18.091551,18.0334083 18.6030683,19.6637523 19.7734068,20.2491472 C20.9437452,20.8345422 22.0369105,20.9176314 23.8643415,20.9176314 C25.6917725,20.9176315 27.2759421,20.5256229 27.2759421,20.5256229 C27.2759421,20.5256229 28.5702416,20.2522125 29.1131558,17.9721018 C29.6560699,15.6919912 29.8430167,15.1313222 29.8430167,15.1313222 C29.8430167,15.1313222 30.110133,14.4994727 30.7362257,14.2462718 C31.0764177,14.1847483 31.0163707,12.4263686 30.6338531,12.361913 C27.4661285,11.8281403 21.3083684,11.7719065 16.9410085,12.9754384 C16.6446337,13.0433095 15.3553661,13.0433095 15.0589913,12.9754384 L15.0589913,12.9754384 Z" id="sunglasses" sketch:type="MSShapeGroup"></path>
        </g>
    </g>
</svg>

<svg width="32" height="32" viewBox="0 0 32 32" xmlns="http://www.w3.org/2000/svg"><path d="M18.01 14.967c-.035.335.026.687.112 1h10.84c.032-.29.054-.644.024-1H18.01zm.599-1c.118-.076.257-.142.42-.197 1.789-.604 3.632-.767 4.638-.795 1.006-.027 3.864-.012 4.641.547.169.122.299.274.398.445H18.609zm-5.12 3a5.704 5.704 0 0 1-.493 1H3.468c-.109-.3-.203-.66-.273-1H13.49zm.353-1c.087-.313.146-.665.108-1H3.023c-.031.355-.01.71.021 1h10.798zm-1.655 3c-.05.044-.101.083-.152.119-.66.465-2.108.835-3.93.835-1.057 0-1.916-.05-2.761-.24-.604-.135-.991-.26-1.345-.714h8.188zm1.118-5a1.928 1.928 0 0 0-.367-.164c-1.782-.596-3.617-.757-4.62-.784-1.001-.027-3.848-.012-4.621.54a1.388 1.388 0 0 0-.378.408h9.986zm15.24 4c.107-.302.2-.66.268-1H18.472c.1.285.272.647.486 1h9.587zm-.515 1c-.362.487-.755.616-1.376.757-.849.193-1.71.243-2.773.243-1.829 0-3.284-.375-3.946-.846a2.112 2.112 0 0 1-.19-.154h8.285zm-12.971-5.992c-4.367-1.203-10.525-1.147-13.693-.613-.382.064-.442 1.823-.102 1.884.626.253.893.885.893.885s.187.561.73 2.841c.543 2.28 1.837 2.554 1.837 2.554s1.584.392 3.412.392c1.827 0 2.92-.083 4.09-.669 1.17-.585 1.682-2.216 1.682-2.216s.59-1.404.996-2.73c.127-.416 2.065-.416 2.192 0 .406 1.326.996 2.73.996 2.73s.511 1.63 1.681 2.216c1.17.586 2.264.669 4.091.669 1.828 0 3.412-.392 3.412-.392s1.294-.274 1.837-2.554c.543-2.28.73-2.84.73-2.84s.267-.633.893-.886c.34-.061.28-1.82-.102-1.884-3.168-.534-9.326-.59-13.693.613-.296.068-1.586.068-1.882 0z" fill="#929292" fill-rule="evenodd"/></svg>
